agir/front/components/genericComponents/logos/action-populaire-logo.svg

<svg width="211" height="197" viewBox="0 0 211 197" fill="none" xmlns="http://www.w3.org/2000/svg">
<path d="M52.517 126.447H41.5783L39.8248 131.604H32.3514L42.9561 102.411H51.2227L61.8274 131.604H54.2705L52.517 126.447ZM50.68 120.958L47.0477 110.271L43.4571 120.958H50.68Z" fill="#000A2C"/>
<path d="M63.6354 120.002C63.6354 117.59 64.1225 115.483 65.0967 113.681C66.0987 111.879 67.4765 110.492 69.23 109.522C71.0114 108.552 73.0433 108.067 75.3256 108.067C78.2482 108.067 80.6836 108.829 82.632 110.354C84.6082 111.879 85.9025 114.027 86.5148 116.799H78.9162C78.276 115.025 77.0374 114.138 75.2004 114.138C73.8922 114.138 72.8484 114.651 72.0691 115.677C71.2897 116.675 70.9 118.116 70.9 120.002C70.9 121.887 71.2897 123.342 72.0691 124.368C72.8484 125.366 73.8922 125.865 75.2004 125.865C77.0374 125.865 78.276 124.978 78.9162 123.204H86.5148C85.9025 125.92 84.6082 128.055 82.632 129.608C80.6558 131.16 78.2203 131.936 75.3256 131.936C73.0433 131.936 71.0114 131.451 69.23 130.481C67.4765 129.511 66.0987 128.124 65.0967 126.322C64.1225 124.52 63.6354 122.413 63.6354 120.002Z" fill="#000A2C"/>
<path d="M103.318 125.574V131.604H99.6859C97.0973 131.604 95.0794 130.98 93.632 129.732C92.1846 128.457 91.461 126.392 91.461 123.536V114.304H88.6219V108.399H91.461V102.744H98.6003V108.399H103.276V114.304H98.6003V123.619C98.6003 124.312 98.7673 124.811 99.1013 125.116C99.4353 125.421 99.992 125.574 100.771 125.574H103.318Z" fill="#000A2C"/>
<path d="M110.885 105.987C109.633 105.987 108.603 105.627 107.796 104.906C107.017 104.158 106.627 103.243 106.627 102.162C106.627 101.053 107.017 100.138 107.796 99.4171C108.603 98.6686 109.633 98.2943 110.885 98.2943C112.11 98.2943 113.112 98.6686 113.892 99.4171C114.699 100.138 115.102 101.053 115.102 102.162C115.102 103.243 114.699 104.158 113.892 104.906C113.112 105.627 112.11 105.987 110.885 105.987ZM114.434 108.399V131.604H107.295V108.399H114.434Z" fill="#000A2C"/>
<path d="M130.213 131.936C127.93 131.936 125.871 131.451 124.034 130.481C122.225 129.511 120.791 128.124 119.733 126.322C118.704 124.52 118.189 122.413 118.189 120.002C118.189 117.617 118.717 115.524 119.775 113.722C120.833 111.892 122.28 110.492 124.117 109.522C125.954 108.552 128.014 108.067 130.296 108.067C132.579 108.067 134.638 108.552 136.475 109.522C138.312 110.492 139.76 111.892 140.817 113.722C141.875 115.524 142.404 117.617 142.404 120.002C142.404 122.386 141.861 124.493 140.776 126.322C139.718 128.124 138.257 129.511 136.392 130.481C134.555 131.451 132.495 131.936 130.213 131.936ZM130.213 125.782C131.577 125.782 132.732 125.283 133.678 124.285C134.652 123.287 135.139 121.859 135.139 120.002C135.139 118.144 134.666 116.716 133.72 115.718C132.801 114.72 131.66 114.221 130.296 114.221C128.905 114.221 127.75 114.72 126.831 115.718C125.912 116.689 125.453 118.116 125.453 120.002C125.453 121.859 125.899 123.287 126.789 124.285C127.708 125.283 128.849 125.782 130.213 125.782Z" fill="#000A2C"/>
<path d="M160.387 108.15C163.115 108.15 165.286 109.037 166.9 110.811C168.542 112.558 169.363 114.97 169.363 118.047V131.604H162.266V119.003C162.266 117.451 161.862 116.245 161.055 115.386C160.248 114.526 159.162 114.096 157.798 114.096C156.434 114.096 155.349 114.526 154.542 115.386C153.735 116.245 153.331 117.451 153.331 119.003V131.604H146.192V108.399H153.331V111.477C154.055 110.451 155.029 109.647 156.254 109.065C157.478 108.455 158.856 108.15 160.387 108.15Z" fill="#000A2C"/>
<path d="M26.8786 152.114C26.8786 153.805 26.489 155.358 25.7096 156.772C24.9303 158.158 23.7334 159.281 22.119 160.14C20.5047 160.999 18.5007 161.429 16.1069 161.429H11.6814V171.908H4.54199V142.716H16.1069C18.445 142.716 20.4212 143.118 22.0355 143.922C23.6499 144.726 24.8607 145.835 25.6679 147.249C26.475 148.663 26.8786 150.284 26.8786 152.114ZM15.5642 155.774C16.928 155.774 17.944 155.455 18.612 154.817C19.28 154.18 19.614 153.279 19.614 152.114C19.614 150.95 19.28 150.049 18.612 149.411C17.944 148.774 16.928 148.455 15.5642 148.455H11.6814V155.774H15.5642Z" fill="#000A2C"/>
<path d="M41.2001 172.241C38.9177 172.241 36.858 171.756 35.021 170.786C33.2118 169.815 31.7784 168.429 30.7207 166.627C29.6908 164.825 29.1759 162.718 29.1759 160.306C29.1759 157.922 29.7047 155.829 30.7624 154.027C31.8201 152.197 33.2675 150.797 35.1045 149.827C36.9415 148.857 39.0012 148.372 41.2836 148.372C43.566 148.372 45.6257 148.857 47.4627 149.827C49.2997 150.797 50.7471 152.197 51.8048 154.027C52.8625 155.829 53.3913 157.922 53.3913 160.306C53.3913 162.69 52.8486 164.797 51.763 166.627C50.7054 168.429 49.2441 169.815 47.3792 170.786C45.5422 171.756 43.4825 172.241 41.2001 172.241ZM41.2001 166.087C42.564 166.087 43.7191 165.588 44.6654 164.59C45.6396 163.591 46.1267 162.164 46.1267 160.306C46.1267 158.449 45.6535 157.021 44.7072 156.023C43.7887 155.025 42.6475 154.526 41.2836 154.526C39.8919 154.526 38.7368 155.025 37.8183 156.023C36.8998 156.993 36.4405 158.421 36.4405 160.306C36.4405 162.164 36.8859 163.591 37.7766 164.59C38.6951 165.588 39.8363 166.087 41.2001 166.087Z" fill="#000A2C"/>
<path d="M64.3183 151.989C65.0141 150.908 65.9744 150.035 67.1991 149.37C68.4238 148.704 69.8572 148.372 71.4994 148.372C73.4199 148.372 75.1595 148.857 76.7182 149.827C78.2769 150.797 79.5016 152.183 80.3923 153.985C81.3108 155.787 81.7701 157.881 81.7701 160.265C81.7701 162.649 81.3108 164.756 80.3923 166.586C79.5016 168.388 78.2769 169.788 76.7182 170.786C75.1595 171.756 73.4199 172.241 71.4994 172.241C69.885 172.241 68.4516 171.908 67.1991 171.243C65.9744 170.578 65.0141 169.718 64.3183 168.665V182.97H57.1789V148.704H64.3183V151.989ZM74.5054 160.265C74.5054 158.49 74.0044 157.104 73.0024 156.106C72.0282 155.081 70.8175 154.568 69.3701 154.568C67.9506 154.568 66.7398 155.081 65.7378 156.106C64.7636 157.132 64.2765 158.532 64.2765 160.306C64.2765 162.081 64.7636 163.481 65.7378 164.506C66.7398 165.532 67.9506 166.045 69.3701 166.045C70.7896 166.045 72.0004 165.532 73.0024 164.506C74.0044 163.453 74.5054 162.039 74.5054 160.265Z" fill="#000A2C"/>
<path d="M108.52 148.704V171.908H101.381V168.748C100.657 169.774 99.6691 170.605 98.4165 171.243C97.1918 171.853 95.828 172.158 94.325 172.158C92.5436 172.158 90.971 171.77 89.6071 170.994C88.2433 170.19 87.1856 169.039 86.4341 167.542C85.6826 166.045 85.3068 164.285 85.3068 162.261V148.704H92.4044V161.304C92.4044 162.857 92.808 164.063 93.6152 164.922C94.4224 165.782 95.5079 166.211 96.8718 166.211C98.2635 166.211 99.3629 165.782 100.17 164.922C100.977 164.063 101.381 162.857 101.381 161.304V148.704H108.52Z" fill="#000A2C"/>
<path d="M120.788 141.136V171.908H113.648V141.136H120.788Z" fill="#000A2C"/>
<path d="M124.542 160.265C124.542 157.881 124.987 155.787 125.878 153.985C126.797 152.183 128.035 150.797 129.594 149.827C131.153 148.857 132.892 148.372 134.813 148.372C136.455 148.372 137.888 148.704 139.113 149.37C140.366 150.035 141.326 150.908 141.994 151.989V148.704H149.133V171.908H141.994V168.623C141.298 169.704 140.324 170.578 139.071 171.243C137.847 171.908 136.413 172.241 134.771 172.241C132.878 172.241 131.153 171.756 129.594 170.786C128.035 169.788 126.797 168.388 125.878 166.586C124.987 164.756 124.542 162.649 124.542 160.265ZM141.994 160.306C141.994 158.532 141.493 157.132 140.491 156.106C139.517 155.081 138.32 154.568 136.9 154.568C135.481 154.568 134.27 155.081 133.268 156.106C132.294 157.104 131.807 158.49 131.807 160.265C131.807 162.039 132.294 163.453 133.268 164.506C134.27 165.532 135.481 166.045 136.9 166.045C138.32 166.045 139.517 165.532 140.491 164.506C141.493 163.481 141.994 162.081 141.994 160.306Z" fill="#000A2C"/>
<path d="M157.889 146.292C156.636 146.292 155.606 145.932 154.799 145.211C154.02 144.463 153.63 143.548 153.63 142.466C153.63 141.358 154.02 140.443 154.799 139.722C155.606 138.973 156.636 138.599 157.889 138.599C159.113 138.599 160.116 138.973 160.895 139.722C161.702 140.443 162.106 141.358 162.106 142.466C162.106 143.548 161.702 144.463 160.895 145.211C160.116 145.932 159.113 146.292 157.889 146.292ZM161.438 148.704V171.908H154.298V148.704H161.438Z" fill="#000A2C"/>
<path d="M173.751 152.572C174.586 151.296 175.63 150.298 176.882 149.577C178.135 148.829 179.526 148.455 181.057 148.455V155.982H179.095C177.314 155.982 175.978 156.37 175.087 157.146C174.196 157.894 173.751 159.225 173.751 161.138V171.908H166.611V148.704H173.751V152.572Z" fill="#000A2C"/>
<path d="M206.431 159.932C206.431 160.597 206.389 161.29 206.305 162.011H190.148C190.259 163.453 190.718 164.562 191.526 165.338C192.361 166.087 193.376 166.461 194.573 166.461C196.355 166.461 197.593 165.712 198.289 164.215H205.888C205.498 165.74 204.788 167.112 203.758 168.332C202.756 169.552 201.49 170.508 199.959 171.201C198.428 171.895 196.717 172.241 194.824 172.241C192.541 172.241 190.51 171.756 188.728 170.786C186.947 169.815 185.555 168.429 184.553 166.627C183.551 164.825 183.05 162.718 183.05 160.306C183.05 157.894 183.537 155.787 184.511 153.985C185.513 152.183 186.905 150.797 188.686 149.827C190.468 148.857 192.514 148.372 194.824 148.372C197.078 148.372 199.082 148.843 200.836 149.785C202.589 150.728 203.953 152.073 204.928 153.819C205.93 155.566 206.431 157.603 206.431 159.932ZM199.124 158.061C199.124 156.841 198.707 155.871 197.872 155.15C197.037 154.429 195.993 154.069 194.74 154.069C193.543 154.069 192.528 154.415 191.693 155.108C190.885 155.801 190.384 156.785 190.189 158.061H199.124Z" fill="#000A2C"/>
<path d="M112.996 88.5652L92.4217 68.0726C81.0588 56.7549 80.9696 38.4941 92.2226 27.2859C103.475 16.0778 121.809 16.1666 133.172 27.4843C144.535 38.802 144.624 57.0628 133.371 68.271L112.996 88.5652Z" fill="white"/>
<path fill-rule="evenodd" clip-rule="evenodd" d="M82.6216 53.3584L98.8589 69.5311L115.096 53.3584C124.064 44.4264 124.064 29.9449 115.096 21.013C106.129 12.081 91.5892 12.081 82.6216 21.013C73.654 29.9449 73.654 44.4264 82.6216 53.3584ZM98.8589 79.3066L120.003 58.2462C131.681 46.6148 131.681 27.7566 120.003 16.1252C108.326 4.4938 89.3921 4.4938 77.7143 16.1252C66.0364 27.7566 66.0364 46.6148 77.7143 58.2462L98.8589 79.3066Z" fill="#000A2C"/>
</svg>

<svg width="211" height="197" fill="none" xmlns="http://www.w3.org/2000/svg"><path d="M52.517 126.447H41.578l-1.753 5.157H32.35l10.605-29.193h8.267l10.604 29.193H54.27l-1.754-5.157Zm-1.837-5.489-3.632-10.687-3.59 10.687h7.222Zm12.955-.956c0-2.412.488-4.519 1.462-6.321 1.002-1.802 2.38-3.189 4.133-4.159 1.781-.97 3.813-1.455 6.096-1.455 2.922 0 5.358.762 7.306 2.287 1.976 1.525 3.27 3.673 3.883 6.445h-7.599c-.64-1.774-1.879-2.661-3.716-2.661-1.308 0-2.352.513-3.13 1.539-.78.998-1.17 2.439-1.17 4.325 0 1.885.39 3.34 1.17 4.366.778.998 1.822 1.497 3.13 1.497 1.837 0 3.076-.887 3.716-2.661h7.599c-.612 2.716-1.907 4.851-3.883 6.404-1.976 1.552-4.412 2.328-7.306 2.328-2.283 0-4.315-.485-6.096-1.455-1.754-.97-3.131-2.357-4.133-4.159-.974-1.802-1.462-3.909-1.462-6.32Zm39.683 5.572v6.03h-3.632c-2.589 0-4.607-.624-6.054-1.872-1.447-1.275-2.171-3.34-2.171-6.196v-9.232h-2.84v-5.905h2.84v-5.655h7.14v5.655h4.675v5.905H98.6v9.315c0 .693.167 1.192.501 1.497.334.305.891.458 1.67.458h2.547Zm7.567-19.587c-1.252 0-2.282-.36-3.089-1.081-.779-.748-1.169-1.663-1.169-2.744 0-1.109.39-2.024 1.169-2.745.807-.748 1.837-1.123 3.089-1.123 1.225 0 2.227.375 3.007 1.123.807.721 1.21 1.636 1.21 2.745 0 1.081-.403 1.996-1.21 2.744-.78.721-1.782 1.081-3.007 1.081Zm3.549 2.412v23.205h-7.139v-23.205h7.139Zm15.779 23.537c-2.283 0-4.342-.485-6.179-1.455-1.809-.97-3.243-2.357-4.301-4.159-1.029-1.802-1.544-3.909-1.544-6.32 0-2.385.528-4.478 1.586-6.28 1.058-1.83 2.505-3.23 4.342-4.2 1.837-.97 3.897-1.455 6.179-1.455 2.283 0 4.342.485 6.179 1.455 1.837.97 3.285 2.37 4.342 4.2 1.058 1.802 1.587 3.895 1.587 6.28 0 2.384-.543 4.491-1.628 6.32a10.72 10.72 0 0 1-4.384 4.159c-1.837.97-3.897 1.455-6.179 1.455Zm0-6.154c1.364 0 2.519-.499 3.465-1.497.974-.998 1.461-2.426 1.461-4.283 0-1.858-.473-3.286-1.419-4.284-.919-.998-2.06-1.497-3.424-1.497-1.391 0-2.546.499-3.465 1.497-.919.971-1.378 2.398-1.378 4.284 0 1.857.446 3.285 1.336 4.283.919.998 2.06 1.497 3.424 1.497Zm30.174-17.632c2.728 0 4.899.887 6.513 2.661 1.642 1.747 2.463 4.159 2.463 7.236v13.557h-7.097v-12.601c0-1.552-.404-2.758-1.211-3.617-.807-.86-1.893-1.29-3.257-1.29s-2.449.43-3.256 1.29c-.807.859-1.211 2.065-1.211 3.617v12.601h-7.139v-23.205h7.139v3.078c.724-1.026 1.698-1.83 2.923-2.412 1.224-.61 2.602-.915 4.133-.915ZM26.879 152.114c0 1.691-.39 3.244-1.17 4.658-.779 1.386-1.976 2.509-3.59 3.368-1.614.859-3.618 1.289-6.012 1.289H11.68v10.479H4.542v-29.192h11.565c2.338 0 4.314.402 5.928 1.206 1.615.804 2.826 1.913 3.633 3.327.807 1.414 1.21 3.035 1.21 4.865Zm-11.315 3.66c1.364 0 2.38-.319 3.048-.957.668-.637 1.002-1.538 1.002-2.703 0-1.164-.334-2.065-1.002-2.703-.668-.637-1.684-.956-3.048-.956h-3.883v7.319h3.883ZM41.2 172.241c-2.282 0-4.342-.485-6.179-1.455-1.81-.971-3.243-2.357-4.3-4.159-1.03-1.802-1.545-3.909-1.545-6.321 0-2.384.529-4.477 1.586-6.279 1.058-1.83 2.505-3.23 4.343-4.2 1.837-.97 3.896-1.455 6.179-1.455 2.282 0 4.342.485 6.179 1.455 1.837.97 3.284 2.37 4.342 4.2 1.057 1.802 1.586 3.895 1.586 6.279s-.542 4.491-1.628 6.321a10.724 10.724 0 0 1-4.384 4.159c-1.837.97-3.896 1.455-6.179 1.455Zm0-6.154c1.364 0 2.52-.499 3.465-1.497.975-.999 1.462-2.426 1.462-4.284 0-1.857-.474-3.285-1.42-4.283-.918-.998-2.06-1.497-3.423-1.497-1.392 0-2.547.499-3.466 1.497-.918.97-1.377 2.398-1.377 4.283 0 1.858.445 3.285 1.336 4.284.918.998 2.06 1.497 3.423 1.497Zm23.118-14.098c.696-1.081 1.656-1.954 2.881-2.619 1.225-.666 2.658-.998 4.3-.998 1.92 0 3.66.485 5.22 1.455 1.558.97 2.783 2.356 3.673 4.158.919 1.802 1.378 3.896 1.378 6.28 0 2.384-.46 4.491-1.378 6.321-.89 1.802-2.115 3.202-3.674 4.2-1.559.97-3.298 1.455-5.219 1.455-1.614 0-3.047-.333-4.3-.998-1.225-.665-2.185-1.525-2.88-2.578v14.305h-7.14v-34.266h7.14v3.285Zm10.187 8.276c0-1.775-.5-3.161-1.503-4.159-.974-1.025-2.184-1.538-3.632-1.538-1.42 0-2.63.513-3.632 1.538-.974 1.026-1.462 2.426-1.462 4.2 0 1.775.488 3.175 1.462 4.2 1.002 1.026 2.213 1.539 3.632 1.539 1.42 0 2.63-.513 3.632-1.539 1.002-1.053 1.503-2.467 1.503-4.241Zm34.015-11.561v23.204h-7.139v-3.16c-.724 1.026-1.712 1.857-2.965 2.495-1.224.61-2.588.915-4.091.915-1.781 0-3.354-.388-4.718-1.164-1.364-.804-2.421-1.955-3.173-3.452-.751-1.497-1.127-3.257-1.127-5.281v-13.557h7.097v12.6c0 1.553.404 2.759 1.211 3.618.807.86 1.893 1.289 3.257 1.289 1.391 0 2.49-.429 3.298-1.289.807-.859 1.211-2.065 1.211-3.618v-12.6h7.139Zm12.268-7.568v30.772h-7.14v-30.772h7.14Zm3.754 19.129c0-2.384.445-4.478 1.336-6.28.919-1.802 2.157-3.188 3.716-4.158 1.559-.97 3.298-1.455 5.219-1.455 1.642 0 3.075.332 4.3.998 1.253.665 2.213 1.538 2.881 2.619v-3.285h7.139v23.204h-7.139v-3.285c-.696 1.081-1.67 1.955-2.923 2.62-1.224.665-2.658.998-4.3.998-1.893 0-3.618-.485-5.177-1.455-1.559-.998-2.797-2.398-3.716-4.2-.891-1.83-1.336-3.937-1.336-6.321Zm17.452.041c0-1.774-.501-3.174-1.503-4.2-.974-1.025-2.171-1.538-3.591-1.538-1.419 0-2.63.513-3.632 1.538-.974.998-1.461 2.384-1.461 4.159 0 1.774.487 3.188 1.461 4.241 1.002 1.026 2.213 1.539 3.632 1.539 1.42 0 2.617-.513 3.591-1.539 1.002-1.025 1.503-2.425 1.503-4.2Zm15.895-14.014c-1.253 0-2.283-.36-3.09-1.081-.779-.748-1.169-1.663-1.169-2.745 0-1.108.39-2.023 1.169-2.744.807-.749 1.837-1.123 3.09-1.123 1.224 0 2.227.374 3.006 1.123.807.721 1.211 1.636 1.211 2.744 0 1.082-.404 1.997-1.211 2.745-.779.721-1.782 1.081-3.006 1.081Zm3.549 2.412v23.204h-7.14v-23.204h7.14Zm12.313 3.868c.835-1.276 1.879-2.274 3.131-2.995 1.253-.748 2.644-1.122 4.175-1.122v7.527h-1.962c-1.781 0-3.117.388-4.008 1.164-.891.748-1.336 2.079-1.336 3.992v10.77h-7.14v-23.204h7.14v3.868Zm32.68 7.36c0 .665-.042 1.358-.126 2.079h-16.157c.111 1.442.57 2.551 1.378 3.327.835.749 1.85 1.123 3.047 1.123 1.782 0 3.02-.749 3.716-2.246h7.599a10.24 10.24 0 0 1-2.13 4.117c-1.002 1.22-2.268 2.176-3.799 2.869-1.531.694-3.242 1.04-5.135 1.04-2.283 0-4.314-.485-6.096-1.455-1.781-.971-3.173-2.357-4.175-4.159-1.002-1.802-1.503-3.909-1.503-6.321s.487-4.519 1.461-6.321c1.002-1.802 2.394-3.188 4.175-4.158 1.782-.97 3.828-1.455 6.138-1.455 2.254 0 4.258.471 6.012 1.413a10.054 10.054 0 0 1 4.092 4.034c1.002 1.747 1.503 3.784 1.503 6.113Zm-7.307-1.871c0-1.22-.417-2.19-1.252-2.911-.835-.721-1.879-1.081-3.132-1.081-1.197 0-2.212.346-3.047 1.039-.808.693-1.309 1.677-1.504 2.953h8.935Z" fill="#000A2C"/><path d="M112.996 88.565 92.422 68.073c-11.363-11.318-11.452-29.579-.2-40.787 11.253-11.208 29.587-11.12 40.95.198 11.363 11.318 11.452 29.579.199 40.787l-20.375 20.294Z" fill="#fff"/><path fill-rule="evenodd" clip-rule="evenodd" d="m82.622 53.358 16.237 16.173 16.237-16.173c8.968-8.932 8.968-23.413 0-32.345-8.967-8.932-23.507-8.932-32.474 0-8.968 8.932-8.968 23.413 0 32.345Zm16.237 25.949 21.144-21.06c11.678-11.632 11.678-30.49 0-42.122-11.677-11.631-30.61-11.631-42.289 0-11.678 11.632-11.678 30.49 0 42.121l21.145 21.06Z" fill="#000A2C"/></svg>
